svgs/regular/money-from-bracket.svg

<svg xmlns="http://www.w3.org/2000/svg" viewBox="0 0 640 512"><!--! Font Awesome Pro 6.4.2 by @fontawesome - https://fontawesome.com License - https://fontawesome.com/license (Commercial License) Copyright 2023 Fonticons, Inc. --><path d="M48 88v80c0 13.3-10.7 24-24 24s-24-10.7-24-24V88C0 39.4 39.4 0 88 0H552c48.6 0 88 39.4 88 88v80c0 13.3-10.7 24-24 24s-24-10.7-24-24V88c0-22.1-17.9-40-40-40H88C65.9 48 48 65.9 48 88zm416 8h48l0 352c0 35.3-28.7 64-64 64H192c-35.3 0-64-28.7-64-64l0-352h48l0 304c35.3 0 64 28.7 64 64H400c0-35.3 28.7-64 64-64V96zM320 352c-53 0-96-35.8-96-80s43-80 96-80s96 35.8 96 80s-43 80-96 80z"/></svg>

<svg xmlns="http://www.w3.org/2000/svg" viewBox="0 0 640 512"><!--! Font Awesome Pro 6.1.1 by @fontawesome - https://fontawesome.com License - https://fontawesome.com/license (Commercial License) Copyright 2022 Fonticons, Inc. --><path d="M48 168C48 181.3 37.25 192 24 192C10.75 192 0 181.3 0 168V88C0 39.4 39.4 0 88 0H552C600.6 0 640 39.4 640 88V168C640 181.3 629.3 192 616 192C602.7 192 592 181.3 592 168V88C592 65.91 574.1 48 552 48H88C65.91 48 48 65.91 48 88V168zM464 96H512V448C512 483.3 483.3 512 448 512H192C156.7 512 128 483.3 128 448V96H176V400C211.3 400 240 428.7 240 464H400C400 428.7 428.7 400 464 400V96zM320 352C266.1 352 224 316.2 224 272C224 227.8 266.1 192 320 192C373 192 416 227.8 416 272C416 316.2 373 352 320 352z"/></svg>
